X:1
T:Title
%%score 1 { 2 | 3 }
L:1/8
Q:1/4=100
M:4/4
K:Eb
V:1 treble nm="Grand Piano, Soprano"
V:2 treble nm="Choir Pad, On the Victory Side, Crosby"
V:3 bass 
V:1
 [EG][FA] [GB]2 [GB]2 [GB]2 | [Ge]>[Ge] [Ge]4 [GB]2 | [Ge]>[Ge] [Ad]2 [Ac]2 [FA]2 | [Ac]2 [GB]6 | %4
w: By~John~Robson~Sweney * * * *||||
 [GB]>[FA] [EG]2 [EG]>[EG] [EG]2 | [FA]2 [GB]2 [Ge]4 | E>[EF] [EG]2 [EB][FA] [EG]2 | [DF]2 E6 | %8
w: ||||
 [GB]>[Ge] [Ad]2 [DF]2 [FA]2 | [AB]>[Ac] [GB]2 [B,E]2 [EG]2 | [EB]>[EB] [DB]2 [FA]>[EG] [DF]2 | %11
w: |||
 [DB]2 [EG]6 | [EG]>[FA] [GB]2 [Ge]2 [Ge]2 | [GB]>[GB] [Ac]2 [Ae]2 [Ae]2 | %14
w: |||
 E>[EF] [EG]2 [GB][FA] [EG]2 | [DF]2 E6- | E2 z2 z4 |] %17
w: |||
V:2
 B,2 E2 E2 E2 | B,>[K:bass]B, B,4 E2 | B,>B, B,2[K:treble] D2 D2 | D2 E6 | %4
 B,>[K:bass]B, B,2 B,>B, B,2 | B,2 E2 B,4 | G,>A, B,2 B,C B,2 | A,2 G,6 | %8
 B,>B, B,2 B,2[K:treble] D2 | D>D E2 G,2[K:bass] B,2 | G,>G, F,2 B,>B, B,2 | B,2 B,6 | %12
 B,>B, E2 B,2 B,2 | E>E E2 C2 C2 | C>C[K:bass] B,2 B,2 B,2 | B,2 G,6- | G,2 z2 z4 |] %17
V:3
 G,2 E,2 E,2 E,2 | E,>E, E,4 E,2 | E,>E, B,,2 B,,2 B,,2 | B,,2 E,6 | E,>E, E,2 E,>E, E,2 | %5
 E,2 E,2 E,4 | E,>E, E,2 G,A, z2 | B,,2 E,6 | E,>E, B,,2 B,,2 B,,2 | B,,>B,, E,2 E,2 E,2 | %10
 E,>E, B,,2 B,,>B,, B,,2 | B,,2 E,6 | E,>E, E,2 E,2 E,2 | D,>E, A,2 A,2 A,2 | =A,>A, z2 z2 B,,2 | %15
 B,,2 E,6- | E,2 z2 z4 |] %17

